X: 111
T:Angus Campbell
K:A
M:4/4
L:1/8
R:Reel
C:JS Skinner
E|"A"A/2A/2A c-A EAce|a2 g-a "D"fa"A"ec|"E7"d/2d/2d B-d "A"c/2c/2c A-c|
"Bm"BFBA "E"GEFG|!
"A"A/2A/2A c-A EAce|a2 g-a "D"fa"A"ec|"Bm"defd "A"ceaf|ec"E"dB "A"Ae.f.g
.|!
"A"{g}a2 e-a c.a.A.a.|(c/2B/2A)ce {g}aAce|"Bm"{a}b2 f-b dbBb|(d/2c/2B)df
 bBdb|!
"A"{g}a2 e-a caAa|(c/2B/2A)ce aecA|"Bm"defd "A"ceaf|ec "E"dB "A"A3A3AEFG
||
% <A name="D1X112">
